X:88
T:Le Renard
R:Maraichine
C:Traditional
O:Marais Nord Vend\'ee
B:Trad Magazine Hors S\'erie ``Tablatures 2'', 1997
Z:Bert Van Vreckem <http://flanders.blackmill.net/music/>
M:2/4
L:1/8
Q:1/4=126
K:C
"C"cg gf|gf/e/ "G"dd|"C"cg gf|g2 "G"d2:|
|:"G"de fe|de/d/ "C"cc|"G"de fe|d2 "C"c2:|
W:T'as perdu ta queue, mon renard
W:T'iras point \'a la chasse (bis)
W:
W:Celui qui t'la fait, mon renard
W:T'as fait faire do grimaces (bis)

